X: 25
T:Tennessee 
R:
Z:added by Alf 
M:3/4
L:1/8
K:F
FG|A2 c2 FG|Ac3 fg|a4 ag|fd4f|fc4c|d2 c2 A2|G4 GA|G4 FG|
Ac3 FG|Ac3 fg|a4 ag|fd4f|fc3 A2|_B2 A2 G2|F6|F4 fg||
a4 aa|g4 ag|f3d f2|dc3 de|f2 c2 A2|d2 c2 A2|G4 GA|G4 FG|
Ac3 FG|Ac3 fg|a4 ag|fd4f|fc3 A2|_B2 A2 G2|F6|F6|]
